dist/images/Logo.svg

<?xml version="1.0" encoding="UTF-8" standalone="no"?>
<svg width="84px" height="62px" viewBox="0 0 84 62" version="1.1" xmlns="http://www.w3.org/2000/svg" xmlns:xlink="http://www.w3.org/1999/xlink">
    <!-- Generator: Sketch 41.2 (35397) - http://www.bohemiancoding.com/sketch -->
    <title>Logo</title>
    <desc>Created with Sketch.</desc>
    <defs></defs>
    <g id="Pages" stroke="none" stroke-width="1" fill="none" fill-rule="evenodd">
        <g id="Homepage" transform="translate(-930.000000, -1662.000000)" fill="#FFFFFF">
            <g id="footer" transform="translate(0.000000, 1632.000000)">
                <g id="Logotype" transform="translate(930.000000, 30.000000)">
                    <g id="Logo">
                        <path d="M21.5420959,35.0733912 C24.939029,31.2717658 29.2047314,28.723953 33.9046845,27.9894966 L35.0384682,49.8984417 C34.397999,49.8893416 33.7552175,49.9289293 33.1119571,50.0193337 C32.6316973,50.0868298 32.1595017,50.181481 31.6958596,50.3022254 L21.5420959,35.0733912 Z M19.7351055,37.3274329 C16.7026901,41.541966 14.6043753,46.8869633 13.8639502,52.8166976 L23.826528,55.7312403 C25.2907054,53.8852452 26.9854034,52.4145313 28.8681413,51.4112986 L19.7351055,37.3274329 Z M50.757154,33.8700666 C46.8634052,30.0434783 41.9993415,27.7708333 36.7230769,27.7708333 C36.6848495,27.7708333 36.6466437,27.7709526 36.6084598,27.7711909 L38.062722,50.3010734 C39.282037,50.6081031 40.4816985,51.0856596 41.648319,51.7181991 L50.757154,33.8700666 Z M52.7277009,36.0406712 C56.3726819,40.5316724 58.8800791,46.5412007 59.6371788,53.2802442 L47.7342863,56.7624242 C46.6116746,55.4613085 45.4155988,54.3199383 44.1651599,53.360491 L52.7277009,36.0406712 Z M59.8501586,56.1404566 C59.8679339,56.6196951 59.8769231,57.1018985 59.8769231,57.5868056 C59.8769231,59.086299 59.7909643,60.559939 59.6250461,62 L51.3705079,62 C50.8331159,61.0405115 50.2631517,60.1263401 49.66439,59.2618686 L59.8501586,56.1404566 Z M13.6160677,55.6748747 C13.5850002,56.3070374 13.5692308,56.94455 13.5692308,57.5868056 C13.5692308,59.086299 13.6551895,60.559939 13.8211078,62 L20.2860945,62 C20.8126554,60.6704522 21.4171054,59.4232536 22.092909,58.2725888 L13.6160677,55.6748747 Z" id="Combined-Shape"></path>
                        <path d="M9.34134955,49.9079898 C8.51556423,50.5958938 7.4077193,51.4144198 6.26458487,51.9522059 L5.66746839,42.7014914 C6.69765924,41.9594845 7.78541619,41.2153287 8.85481445,40.5063104 L9.34134955,49.9079898 Z M12.0429926,45.5668478 L16.1538462,35.9513889 C16.1538462,35.9513889 14.1745872,37.1044604 11.6016951,38.7301297 L12.0429926,45.5668478 Z M3.35297765,52.3777279 C1.74213165,51.7781052 0.597053868,49.5432322 0.0833735133,48.6471834 C-0.349016821,47.8929346 0.943648458,46.4373933 2.95941449,44.7726143 L3.35297765,52.3777279 Z" id="Combined-Shape"></path>
                        <path d="M80.6523278,27.9663204 C79.989044,27.4105144 79.2267883,26.7876028 78.3697773,26.0684852 C78.1939845,25.9209775 78.0151636,25.7702265 77.8335314,25.6166956 L64.4115541,40.5940189 C65.8329626,40.8228865 67.30618,40.9382026 68.7705776,40.9393981 L80.6523278,27.9663204 Z M82.7009375,29.8284959 C84.5694961,31.8281206 84.200539,33.1859903 81.1754434,36.7911589 C79.5098206,38.7761708 76.4892055,40.0447285 73.0430418,40.6055538 L82.7009375,29.8284959 Z M75.7225334,23.8298921 C74.7997002,23.0536869 73.8337501,22.2545148 72.8461594,21.4783178 L57.7333969,38.3423555 C58.7265779,38.9327023 59.860593,39.42287 61.0845313,39.8123808 L75.7225334,23.8298921 Z M70.6598701,19.8350274 C66.0891644,16.5771882 61.3953865,14.4810635 58.5824521,17.8333882 C57.8466855,18.7102406 57.1323261,19.6871121 56.4776045,20.7296095 C58.8925476,21.1132145 60.7384615,23.2039933 60.7384615,25.7256944 C60.7384615,28.5197183 58.4723336,30.7847222 55.6769231,30.7847222 C54.7864628,30.7847222 53.9497089,30.5548922 53.2228007,30.1513436 C53.1554271,32.4826321 53.776283,34.6913836 55.4101526,36.4854171 L70.6598701,19.8350274 Z" id="Combined-Shape"></path>
                        <path d="M57.6514863,13.6970754 C57.2436847,15.3183297 56.7194437,16.6433587 56.0852964,17.3322001 L51.0340397,9.75621618 C51.0435705,9.75066203 51.0531177,9.74512192 51.0626832,9.73959927 C51.8134852,9.30612352 52.5827034,8.27094537 53.3305971,7.03392141 L57.6514863,13.6970754 Z M58.3939918,9.49116424 C58.8512965,5.60326485 58.7869349,1.59061804 58.1428387,0.475010698 C57.4616667,-0.704813867 56.2707205,1.59562496 54.8831499,4.22552766 L58.3939918,9.49116424 Z M53.381317,18.5341243 C51.2734401,18.9201288 49.2551806,18.2339131 48.3239286,16.6209373 C47.4594604,15.1236344 47.754948,13.2144351 48.9122437,11.6424588 L53.381317,18.5341243 Z" id="Combined-Shape"></path>
                        <ellipse id="Oval-5" cx="54.2769231" cy="25.4027778" rx="2.36923077" ry="2.36805556"></ellipse>
                    </g>
                </g>
            </g>
        </g>
    </g>
</svg>

<svg width="84" height="62" viewBox="0 0 84 62" xmlns="http://www.w3.org/2000/svg"><title>Logo</title><g fill="#FFF" fill-rule="evenodd"><path d="M21.542 35.073c3.397-3.801 7.663-6.349 12.363-7.084l1.133 21.91a12.547 12.547 0 0 0-3.342.403L21.542 35.073zm-1.807 2.254c-3.032 4.215-5.13 9.56-5.871 15.49l9.963 2.914c1.464-1.846 3.158-3.316 5.041-4.32l-9.133-14.084zm31.022-3.457c-3.894-3.827-8.758-6.1-14.034-6.1l-.115.001 1.455 22.53c1.219.307 2.419.785 3.585 1.417l9.11-17.848zm1.97 2.17c3.646 4.492 6.153 10.501 6.91 17.24l-11.903 3.482a24.205 24.205 0 0 0-3.569-3.402l8.563-17.32zm7.123 20.1a39.022 39.022 0 0 1-.225 5.86h-8.254a33.918 33.918 0 0 0-1.707-2.738L59.85 56.14zm-46.234-.465A38.952 38.952 0 0 0 13.821 62h6.465a26.969 26.969 0 0 1 1.807-3.727l-8.477-2.598zM9.341 49.908c-.825.688-1.933 1.506-3.076 2.044l-.598-9.25a101.06 101.06 0 0 1 3.188-2.196l.486 9.402zm2.702-4.341l4.11-9.616s-1.978 1.153-4.551 2.78l.441 6.836zm-8.69 6.81c-1.61-.599-2.756-2.834-3.27-3.73-.432-.754.86-2.21 2.876-3.874l.394 7.605zM80.652 27.966c-.663-.555-1.425-1.178-2.282-1.898l-.536-.451-13.422 14.977a27.71 27.71 0 0 0 4.359.345l11.881-12.973zm2.049 1.862c1.868 2 1.5 3.358-1.526 6.963-1.665 1.985-4.686 3.254-8.132 3.815l9.658-10.778zm-6.978-5.998a112.235 112.235 0 0 0-2.877-2.352L57.733 38.342c.994.59 2.128 1.08 3.352 1.47L75.723 23.83zm-5.063-3.995c-4.57-3.258-9.265-5.354-12.078-2.002a26.245 26.245 0 0 0-2.104 2.897 5.06 5.06 0 1 1-3.255 9.422c-.068 2.33.553 4.54 2.187 6.333l15.25-16.65zM57.651 13.697c-.407 1.621-.932 2.946-1.566 3.635l-5.051-7.576.029-.016c.75-.434 1.52-1.47 2.268-2.706l4.32 6.663zm.743-4.206c.457-3.888.393-7.9-.251-9.016-.681-1.18-1.872 1.12-3.26 3.75l3.511 5.266zm-5.013 9.043c-2.108.386-4.126-.3-5.057-1.913-.865-1.497-.57-3.407.588-4.979l4.47 6.892z"/><ellipse cx="54.277" cy="25.403" rx="2.369" ry="2.368"/></g></svg>
